X:520
T:Rucenitsa 1
O:Bulgaria
S:Loose photocopied sheet
Z:Nigel Gatherer
M:7/8
L:1/8
K:Am
AB^cd efd | e2 ^ga =gfe | a2 gf fed | ^gafe d^c_B  |
AB^cd efd | e2 ^ga =gfe | a2 gf fed | ^gafe d^c_B :|
A2 d^c cA_B | e2 d^c _BAG | A2 d^c cA_B | e2 d^c _BAG | 
A2 d^c cA_B | e2 d^c _Bcd | egfe fed | ^cedc _BAG |
A2 d^c cA_B | e2 d^c _BAG | A2 d^c cA_B | e2 d^c _BAG | 
A2 d^c cA_B | e2 d^c _Bcd | egfe d^c_B | A2 AE AEA |]
